X:1
T:Fyrtur efter Jns Persson
T:("Vi roar oss i Roalv")
R:Fyrtur
Z:Patrik Mnsson, 2008-12-29
O:Roalv, Skne
S:efter Jns Persson
N:Inspelad av Tom Thomat som lt nr 2 p Gingemusickanternas skiva "Det dansar en Ging 2" (2007) med text och sng av T. Tellving.
M:2/4
L:1/16
Q:1/4=90
K:G
|: B2BA G2GE | DEDC B,2G,2 | d2dB cdec | ABAF G2G,2 |
   B2BA G2GE | DEDC B,2G,2 | d2dB cdec | ABAF G4    |
|: dBGB dBGB | cAFA GDB,D | dBGB dBGB | [1 cAFA G2G,2 :|[2 cAFA G4 ]|



